Obsidian-SemiLight/actions/24s/im-kick-user.svg

<svg viewBox="0 0 24 24" xmlns="http://www.w3.org/2000/svg"><path d="m12 4a3.99999 4.00003 0 0 0 -4 4 3.99999 4.00003 0 0 0 4 4 3.99999 4.00003 0 0 0 4-4 3.99999 4.00003 0 0 0 -4-4zm0 1a3 3.00003 0 0 1 3 3 3 3.00003 0 0 1 -3 3 3 3.00003 0 0 1 -3-3 3 3.00003 0 0 1 3-3zm0 8a7.99995 8.00003 0 0 0 -7.9277344 7h1.0078125a6.99996 7.00003 0 0 1 6.9199219-6 6.99996 7.00003 0 0 1 1 .080078v-1.009766a7.99995 8.00003 0 0 0 -1-.070312zm4.5 0a3.5 3.5 0 0 0 -3.5 3.5 3.5 3.5 0 0 0 3.5 3.5 3.5 3.5 0 0 0 3.5-3.5 3.5 3.5 0 0 0 -3.5-3.5z" fill="#da4453"/><path d="m14 16v1h5v-1z" fill="#fff"/></svg>

<svg xmlns="http://www.w3.org/2000/svg" viewBox="0 0 24 24">
  <defs id="defs3051">
    <style type="text/css" id="current-color-scheme">
      .ColorScheme-NegativeText {
        color:#da4453;
      }
      </style>
  </defs>
  <path
     style="fill:currentColor;fill-opacity:1;stroke:none" 
     d="M 12 4 A 3.99999 4.00003 0 0 0 8 8 A 3.99999 4.00003 0 0 0 12 12 A 3.99999 4.00003 0 0 0 16 8 A 3.99999 4.00003 0 0 0 12 4 z M 12 5 A 3 3.00003 0 0 1 15 8 A 3 3.00003 0 0 1 12 11 A 3 3.00003 0 0 1 9 8 A 3 3.00003 0 0 1 12 5 z M 12 13 A 7.99995 8.00003 0 0 0 4.0722656 20 L 5.0800781 20 A 6.99996 7.00003 0 0 1 12 14 A 6.99996 7.00003 0 0 1 13 14.080078 L 13 13.070312 A 7.99995 8.00003 0 0 0 12 13 z M 16.5 13 A 3.5 3.5 0 0 0 13 16.5 A 3.5 3.5 0 0 0 16.5 20 A 3.5 3.5 0 0 0 20 16.5 A 3.5 3.5 0 0 0 16.5 13 z "
     class="ColorScheme-NegativeText"
     />
  <path
     style="fill:#ffffff"
     d="M 14 16 L 14 17 L 19 17 L 19 16 L 14 16 z "
     id="path16" />
</svg>
